src/components/logo/logo.svg

<svg viewBox="0 0 159 44" xmlns="http://www.w3.org/2000/svg">
  <path d="M71.14 23.6954C71.14 25.9154 70.77 27.8554 70.03 29.5154C69.31 31.1554 68.2 32.4354 66.7 33.3554C65.2 34.2754 63.28 34.7354 60.94 34.7354C58.62 34.7354 56.7 34.2754 55.18 33.3554C53.68 32.4354 52.56 31.1454 51.82 29.4854C51.1 27.8254 50.74 25.8854 50.74 23.6654C50.74 21.4454 51.1 19.5154 51.82 17.8754C52.56 16.2354 53.68 14.9654 55.18 14.0654C56.7 13.1454 58.63 12.6854 60.97 12.6854C63.29 12.6854 65.2 13.1454 66.7 14.0654C68.2 14.9654 69.31 16.2454 70.03 17.9054C70.77 19.5454 71.14 21.4754 71.14 23.6954ZM55.51 23.6954C55.51 25.9354 55.94 27.7054 56.8 29.0054C57.66 30.2854 59.04 30.9254 60.94 30.9254C62.88 30.9254 64.27 30.2854 65.11 29.0054C65.95 27.7054 66.37 25.9354 66.37 23.6954C66.37 21.4354 65.95 19.6654 65.11 18.3854C64.27 17.1054 62.89 16.4654 60.97 16.4654C59.05 16.4654 57.66 17.1054 56.8 18.3854C55.94 19.6654 55.51 21.4354 55.51 23.6954ZM101.594 13.0154L96.134 34.4354H90.974L88.064 23.1854C88.004 22.9654 87.924 22.6354 87.824 22.1954C87.744 21.7554 87.644 21.2754 87.524 20.7554C87.424 20.2354 87.334 19.7454 87.254 19.2854C87.174 18.8054 87.114 18.4354 87.074 18.1754C87.054 18.4354 86.994 18.8054 86.894 19.2854C86.814 19.7454 86.724 20.2354 86.624 20.7554C86.524 21.2554 86.424 21.7354 86.324 22.1954C86.224 22.6354 86.144 22.9754 86.084 23.2154L83.204 34.4354H78.044L72.584 13.0154H77.054L79.784 24.7154C79.904 25.1754 80.034 25.7554 80.174 26.4554C80.314 27.1554 80.444 27.8554 80.564 28.5554C80.684 29.2554 80.774 29.8454 80.834 30.3254C80.894 29.8254 80.984 29.2354 81.104 28.5554C81.224 27.8554 81.344 27.1854 81.464 26.5454C81.604 25.8854 81.724 25.3754 81.824 25.0154L84.944 13.0154H89.234L92.354 25.0154C92.454 25.3554 92.564 25.8554 92.684 26.5154C92.824 27.1754 92.954 27.8554 93.074 28.5554C93.194 29.2554 93.284 29.8454 93.344 30.3254C93.404 29.8254 93.494 29.2354 93.614 28.5554C93.734 27.8554 93.864 27.1554 94.004 26.4554C94.164 25.7554 94.294 25.1754 94.394 24.7154L97.124 13.0154H101.594ZM104.288 34.4354V13.0154H108.818V30.6854H117.518V34.4354H104.288Z" />
  <path d="M128.352 32.8354C128.72 32.8354 129.056 32.8114 129.36 32.7634C129.68 32.7154 129.968 32.6434 130.224 32.5474V33.3394C129.968 33.4354 129.68 33.5154 129.36 33.5794C129.04 33.6434 128.68 33.6754 128.28 33.6754C127.176 33.6754 126.384 33.3634 125.904 32.7394C125.424 32.1154 125.184 31.2034 125.184 30.0034V21.5314H123.264V20.9074L125.184 20.6914L125.472 17.6194H126.12V20.7154H130.152V21.5314H126.12V29.9314C126.12 30.8754 126.28 31.5954 126.6 32.0914C126.936 32.5874 127.52 32.8354 128.352 32.8354ZM143.403 27.0754C143.403 28.3554 143.195 29.4914 142.779 30.4834C142.379 31.4754 141.763 32.2594 140.931 32.8354C140.099 33.3954 139.059 33.6754 137.811 33.6754C136.611 33.6754 135.595 33.3954 134.763 32.8354C133.947 32.2754 133.323 31.4994 132.891 30.5074C132.475 29.5154 132.267 28.3714 132.267 27.0754C132.267 25.0434 132.763 23.4354 133.755 22.2514C134.763 21.0674 136.155 20.4754 137.931 20.4754C139.195 20.4754 140.227 20.7634 141.027 21.3394C141.827 21.9154 142.419 22.6994 142.803 23.6914C143.203 24.6834 143.403 25.8114 143.403 27.0754ZM133.227 27.0754C133.227 28.7874 133.603 30.1794 134.355 31.2514C135.107 32.3074 136.259 32.8354 137.811 32.8354C138.883 32.8354 139.763 32.5954 140.451 32.1154C141.139 31.6194 141.643 30.9394 141.963 30.0754C142.283 29.2114 142.443 28.2114 142.443 27.0754C142.443 25.9874 142.291 25.0114 141.987 24.1474C141.683 23.2834 141.195 22.5954 140.523 22.0834C139.867 21.5714 139.003 21.3154 137.931 21.3154C136.411 21.3154 135.243 21.8274 134.427 22.8514C133.627 23.8594 133.227 25.2674 133.227 27.0754ZM152.452 20.4754C154.116 20.4754 155.388 21.0274 156.268 22.1314C157.164 23.2354 157.612 24.8514 157.612 26.9794C157.612 29.1234 157.14 30.7794 156.196 31.9474C155.252 33.0994 153.94 33.6754 152.26 33.6754C151.06 33.6754 150.1 33.4034 149.38 32.8594C148.676 32.3154 148.18 31.6594 147.892 30.8914H147.844C147.86 31.3714 147.868 31.8674 147.868 32.3794C147.884 32.8754 147.892 33.3554 147.892 33.8194V39.0514H146.98V20.7154H147.748L147.844 23.4994H147.892C148.084 22.9714 148.38 22.4834 148.78 22.0354C149.18 21.5714 149.684 21.1954 150.292 20.9074C150.9 20.6194 151.62 20.4754 152.452 20.4754ZM152.38 21.3154C150.892 21.3154 149.772 21.8114 149.02 22.8034C148.284 23.7794 147.908 25.1714 147.892 26.9794V27.1234C147.892 29.0594 148.268 30.4994 149.02 31.4434C149.772 32.3714 150.836 32.8354 152.212 32.8354C153.62 32.8354 154.708 32.3314 155.476 31.3234C156.26 30.3154 156.652 28.8674 156.652 26.9794C156.652 23.2034 155.228 21.3154 152.38 21.3154Z" />
  <path d="M41 1.74391C41 1.0926 40.4622 0.564575 39.7988 0.564575C39.1355 0.564575 38.5977 1.0926 38.5977 1.74391C38.5977 3.02254 37.4609 4.10266 36.1152 4.10266H30.6968C27.6077 2.55891 24.0892 1.74399 20.5 1.74399C16.9108 1.74399 13.3923 2.55891 10.3032 4.10266H4.89942C3.54586 4.10274 2.40234 3.02254 2.40234 1.74391C2.40234 1.0926 1.86454 0.564575 1.20117 0.564575C0.537805 0.564575 0 1.0926 0 1.74391V5.28199C0 7.46997 0.88198 9.53176 2.48386 11.0935C0.856035 13.7063 0 16.569 0 19.4341C0 29.1884 9.19625 37.1241 20.5 37.1241C31.8037 37.1241 41 29.1884 41 19.4341C41 16.5734 40.1464 13.7145 38.523 11.1048C40.0529 9.61086 41 7.55205 41 5.28207V1.74391ZM20.5001 4.10274C22.4136 4.10274 24.3025 4.36093 26.0992 4.86026C24.7576 5.38813 23.5262 6.18253 22.474 7.21712C21.6723 8.00547 21.0131 8.89594 20.5074 9.85812C20.0017 8.89594 19.3425 8.00547 18.5407 7.21712C17.487 6.18096 16.2535 5.38577 14.9094 4.8579C16.7036 4.36015 18.5895 4.10274 20.5001 4.10274ZM20.5 23.682C20.9492 24.4139 21.5108 25.072 22.1611 25.6335L20.5 28.7097L18.8389 25.6335C19.4892 25.072 20.0508 24.4139 20.5 23.682ZM13.293 25.3308C9.98134 25.3308 7.28711 22.6855 7.28711 19.4341C7.28711 16.1827 9.98134 13.5374 13.293 13.5374C16.6046 13.5374 19.2988 16.1827 19.2988 19.4341C19.2988 22.6855 16.6046 25.3308 13.293 25.3308ZM21.7012 19.4341C21.7012 19.3403 21.704 19.2471 21.7084 19.1543C21.7167 19.098 21.7225 19.0407 21.7223 18.9821V18.9596C21.9695 15.9294 24.5582 13.5374 27.707 13.5374C31.0187 13.5374 33.7129 16.1827 33.7129 19.4341C33.7129 22.6855 31.0187 25.3308 27.707 25.3308C24.3954 25.3308 21.7012 22.6855 21.7012 19.4341ZM2.42621 5.80593C3.17278 6.23332 4.0212 6.4614 4.89942 6.4614H10.5791H10.585H10.8906C13.139 6.4614 15.2521 7.32169 16.8407 8.88376C18.1513 10.1725 18.9743 11.8112 19.2204 13.5847C17.8662 12.2618 16.0568 11.3883 14.0459 11.2122C13.956 11.1911 13.8626 11.1787 13.7661 11.1787H8.50286C7.1907 11.1787 5.97455 10.7755 4.97846 10.0916C4.91423 10.0187 4.84104 9.95168 4.7568 9.89421C4.70067 9.85592 4.64205 9.82424 4.58223 9.79648C3.3801 8.81952 2.57227 7.40322 2.42621 5.80593ZM38.5977 19.4341C38.5977 27.8878 30.4791 34.7654 20.5 34.7654C10.5209 34.7654 2.40234 27.8878 2.40234 19.4341C2.40234 17.0745 3.09582 14.7032 4.41687 12.5137C5.36259 13.0225 6.39808 13.3501 7.47769 13.4773C5.88062 14.9808 4.88477 17.0953 4.88477 19.4341C4.88477 23.9861 8.65668 27.6894 13.293 27.6894C14.5513 27.6894 15.7457 27.4161 16.8185 26.9277L19.4387 31.7799C19.6471 32.1656 20.0553 32.4068 20.5 32.4068C20.9447 32.4068 21.3529 32.1656 21.5613 31.7799L24.1815 26.9277C25.2543 27.4161 26.4488 27.6894 27.707 27.6894C32.3433 27.6894 36.1152 23.9861 36.1152 19.4341C36.1152 17.096 35.1199 14.982 33.5237 13.4785C34.6228 13.3509 35.6581 13.0185 36.5878 12.5214C37.9058 14.7088 38.5977 17.0775 38.5977 19.4341ZM36.3987 9.81543C36.3475 9.84051 36.2972 9.86811 36.2489 9.90105C36.1712 9.95404 36.1028 10.0151 36.042 10.0813C35.0456 10.7713 33.8271 11.1787 32.5117 11.1787H27.2484C27.1547 11.1787 27.0639 11.1902 26.9764 11.2102C24.9648 11.381 23.1538 12.2499 21.7964 13.5685C22.0453 11.8012 22.8673 10.1685 24.1739 8.88368C25.7625 7.32161 27.8756 6.46133 30.1239 6.46133H30.3957C30.3984 6.46133 30.401 6.46156 30.4037 6.46156C30.406 6.46156 30.4083 6.46133 30.4106 6.46133H36.1152C36.9885 6.46133 37.8315 6.23544 38.5732 5.81222C38.425 7.41753 37.6096 8.83918 36.3987 9.81543Z" />
  <path d="M13.5 16.6835L14.5103 19.2744H17.7798L15.1347 20.8758L16.145 23.4667L13.5 21.8654L10.855 23.4667L11.8653 20.8758L9.22025 19.2744H12.4897L13.5 16.6835Z" />
  <path d="M27.5 16.6835L28.5103 19.2744H31.7798L29.1347 20.8758L30.145 23.4667L27.5 21.8654L24.855 23.4667L25.8653 20.8758L23.2202 19.2744H26.4897L27.5 16.6835Z" />
</svg>

<svg xmlns="http://www.w3.org/2000/svg" viewBox="0 0 159 44">
  <path d="M71.14 23.695c0 2.22-.37 4.16-1.11 5.82-.72 1.64-1.83 2.92-3.33 3.84-1.5.92-3.42 1.38-5.76 1.38-2.32 0-4.24-.46-5.76-1.38-1.5-.92-2.62-2.21-3.36-3.87-.72-1.66-1.08-3.6-1.08-5.82s.36-4.15 1.08-5.79c.74-1.64 1.86-2.91 3.36-3.81 1.52-.92 3.45-1.38 5.79-1.38 2.32 0 4.23.46 5.73 1.38 1.5.9 2.61 2.18 3.33 3.84.74 1.64 1.11 3.57 1.11 5.79Zm-15.63 0c0 2.24.43 4.01 1.29 5.31.86 1.28 2.24 1.92 4.14 1.92 1.94 0 3.33-.64 4.17-1.92.84-1.3 1.26-3.07 1.26-5.31 0-2.26-.42-4.03-1.26-5.31-.84-1.28-2.22-1.92-4.14-1.92-1.92 0-3.31.64-4.17 1.92-.86 1.28-1.29 3.05-1.29 5.31Zm46.084-10.68-5.46 21.42h-5.16l-2.91-11.25c-.06-.22-.14-.55-.24-.99-.08-.44-.18-.92-.3-1.44-.1-.52-.19-1.01-.27-1.47-.08-.48-.14-.85-.18-1.11-.02.26-.08.63-.18 1.11-.08.46-.17.95-.27 1.47-.1.5-.2.98-.3 1.44-.1.44-.18.78-.24 1.02l-2.88 11.22h-5.16l-5.46-21.42h4.47l2.73 11.7c.12.46.25 1.04.39 1.74s.27 1.4.39 2.1c.12.7.21 1.29.27 1.77.06-.5.15-1.09.27-1.77.12-.7.24-1.37.36-2.01.14-.66.26-1.17.36-1.53l3.12-12h4.29l3.12 12c.1.34.21.84.33 1.5a52.947 52.947 0 0 1 .66 3.81c.06-.5.15-1.09.27-1.77.12-.7.25-1.4.39-2.1.16-.7.29-1.28.39-1.74l2.73-11.7h4.47Zm2.694 21.42v-21.42h4.53v17.67h8.7v3.75h-13.23ZM128.352 32.835c.368 0 .704-.024 1.008-.072.32-.048.608-.12.864-.216v.792a5.586 5.586 0 0 1-.864.24c-.32.064-.68.096-1.08.096-1.104 0-1.896-.312-2.376-.936-.48-.624-.72-1.536-.72-2.736v-8.472h-1.92v-.624l1.92-.216.288-3.072h.648v3.096h4.032v.816h-4.032v8.4c0 .944.16 1.664.48 2.16.336.496.92.744 1.752.744Zm15.051-5.76c0 1.28-.208 2.416-.624 3.408-.4.992-1.016 1.776-1.848 2.352-.832.56-1.872.84-3.12.84-1.2 0-2.216-.28-3.048-.84-.816-.56-1.44-1.336-1.872-2.328-.416-.992-.624-2.136-.624-3.432 0-2.032.496-3.64 1.488-4.824 1.008-1.184 2.4-1.776 4.176-1.776 1.264 0 2.296.288 3.096.864.8.576 1.392 1.36 1.776 2.352.4.992.6 2.12.6 3.384Zm-10.176 0c0 1.712.376 3.104 1.128 4.176.752 1.056 1.904 1.584 3.456 1.584 1.072 0 1.952-.24 2.64-.72.688-.496 1.192-1.176 1.512-2.04.32-.864.48-1.864.48-3 0-1.088-.152-2.064-.456-2.928-.304-.864-.792-1.552-1.464-2.064-.656-.512-1.52-.768-2.592-.768-1.52 0-2.688.512-3.504 1.536-.8 1.008-1.2 2.416-1.2 4.224Zm19.225-6.6c1.664 0 2.936.552 3.816 1.656.896 1.104 1.344 2.72 1.344 4.848 0 2.144-.472 3.8-1.416 4.968-.944 1.152-2.256 1.728-3.936 1.728-1.2 0-2.16-.272-2.88-.816-.704-.544-1.2-1.2-1.488-1.968h-.048c.016.48.024.976.024 1.488.016.496.024.976.024 1.44v5.232h-.912V20.715h.768l.096 2.784h.048a4.496 4.496 0 0 1 .888-1.464c.4-.464.904-.84 1.512-1.128.608-.288 1.328-.432 2.16-.432Zm-.072.84c-1.488 0-2.608.496-3.36 1.488-.736.976-1.112 2.368-1.128 4.176v.144c0 1.936.376 3.376 1.128 4.32.752.928 1.816 1.392 3.192 1.392 1.408 0 2.496-.504 3.264-1.512.784-1.008 1.176-2.456 1.176-4.344 0-3.776-1.424-5.664-4.272-5.664ZM41 1.744a1.19 1.19 0 0 0-1.201-1.18 1.19 1.19 0 0 0-1.201 1.18c0 1.279-1.137 2.359-2.483 2.359h-5.418c-3.09-1.544-6.608-2.359-10.197-2.359-3.59 0-7.108.815-10.197 2.359H4.9c-1.353 0-2.497-1.08-2.497-2.36a1.19 1.19 0 0 0-1.2-1.178A1.19 1.19 0 0 0 0 1.744v3.538c0 2.188.882 4.25 2.484 5.812C.856 13.706 0 16.569 0 19.434c0 9.754 9.196 17.69 20.5 17.69S41 29.188 41 19.434c0-2.86-.854-5.72-2.477-8.33C40.053 9.612 41 7.553 41 5.283V1.744ZM20.5 4.103c1.914 0 3.802.258 5.6.757a10.807 10.807 0 0 0-5.593 4.998 10.804 10.804 0 0 0-5.598-5 20.943 20.943 0 0 1 5.591-.755Zm0 19.579c.45.732 1.01 1.39 1.661 1.952L20.5 28.71l-1.661-3.076a8.355 8.355 0 0 0 1.661-1.952Zm-7.207 1.649c-3.312 0-6.006-2.645-6.006-5.897 0-3.251 2.694-5.897 6.006-5.897 3.312 0 6.006 2.646 6.006 5.897 0 3.252-2.694 5.897-6.006 5.897Zm8.408-5.897c0-.094.003-.187.007-.28a1.15 1.15 0 0 0 .014-.172v-.022c.247-3.03 2.836-5.423 5.985-5.423 3.312 0 6.006 2.646 6.006 5.897 0 3.252-2.694 5.897-6.006 5.897-3.312 0-6.006-2.645-6.006-5.897ZM2.426 5.806A4.967 4.967 0 0 0 4.9 6.46h5.992c2.248 0 4.361.86 5.95 2.423a8.137 8.137 0 0 1 2.38 4.7 8.452 8.452 0 0 0-5.175-2.372 1.222 1.222 0 0 0-.28-.033H8.503a6.21 6.21 0 0 1-3.525-1.087 1.187 1.187 0 0 0-.396-.296c-1.202-.976-2.01-2.393-2.156-3.99Zm36.172 13.628c0 8.454-8.119 15.331-18.098 15.331-9.98 0-18.098-6.877-18.098-15.33 0-2.36.694-4.732 2.015-6.921a8.568 8.568 0 0 0 3.06.963c-1.596 1.504-2.592 3.618-2.592 5.957 0 4.552 3.772 8.255 8.408 8.255a8.49 8.49 0 0 0 3.526-.761l2.62 4.852c.208.386.616.627 1.061.627.445 0 .853-.241 1.061-.627l2.62-4.852a8.49 8.49 0 0 0 3.526.761c4.636 0 8.408-3.703 8.408-8.255 0-2.338-.995-4.452-2.591-5.956a8.593 8.593 0 0 0 3.064-.957c1.318 2.188 2.01 4.556 2.01 6.913Zm-2.2-9.619a1.196 1.196 0 0 0-.357.266 6.184 6.184 0 0 1-3.53 1.098h-5.263c-.093 0-.184.011-.272.031a8.452 8.452 0 0 0-5.18 2.358 8.138 8.138 0 0 1 2.378-4.684 8.431 8.431 0 0 1 5.95-2.423h5.991c.873 0 1.716-.226 2.458-.649-.148 1.606-.963 3.027-2.174 4.003Z"/>
  <path d="m13.5 16.683 1.01 2.591h3.27l-2.645 1.602 1.01 2.59-2.645-1.6-2.645 1.6 1.01-2.59-2.645-1.602h3.27l1.01-2.59ZM27.5 16.683l1.01 2.591h3.27l-2.645 1.602 1.01 2.59-2.645-1.6-2.645 1.6 1.01-2.59-2.645-1.602h3.27l1.01-2.59Z"/>
</svg>
